X:169
T: Felülről fúl az őszi szél...
M: 4/4
L: 1/4
K: F
g>f e<f | e2f2 | d2d2 | 
f>e d<B | A2B2 | G2G2 | 
f>e d<B | A2B2 | G2d2 | 
edcB | A2B2 | G2G2 | 

